/* XPM */
static const char *icon_xpm[] = {
"32 32 4 1 ",
"  c None",
". c #242424",
"# c #F0F0F0",
"a c #6AAA3E",
"                                ",
"                                ",
"  ............................  ",
"  ............................  ",
"  ............................  ",
"  ............................  ",
"  ..........########..........  ",
"  ..........########..........  ",
"  ..........########..........  ",
"  ..........########..........  ",
"  ..........########..........  ",
"  ..........########..........  ",
"  ..........########..........  ",
"  ..........########..........  ",
"  ....####################....  ",
"  ....####################....  ",
"  ......################......  ",
"  ......################......  ",
"  ........############........  ",
"  ........############........  ",
"  ..........########..........  ",
"  ..........########..........  ",
"  ............####............  ",
"  ............####............  ",
"  ............................  ",
"  ............................  ",
"  ....aaaaaaaaaaaaaaaaaaaa....  ",
"  ....aaaaaaaaaaaaaaaaaaaa....  ",
"  ............................  ",
"  ............................  ",
"                                ",
"                                "
};
